X: 3345
M: C
L: 1/8
K: G
(DB,) |\
|: (Bc) |\
dBdB G2(cd) | ecec A2(ef) |\
gege dcBA | FGAF D2(Bc) |\
dBdB G2(cd) | ecec A2(ef) |\
gege afaf | g2b2 g2 :|


